packages/foundations/assets/icons/functional/images/notification/question_mark_circle_14_filled.svg

<svg width="14" height="14" viewBox="0 0 14 14" fill="none" xmlns="http://www.w3.org/2000/svg">
<g clip-path="url(#clip0_2214_8110)">
<path fill-rule="evenodd" clip-rule="evenodd" d="M7.00275 1.39999C10.087 1.39999 12.6 3.90263 12.6 6.996C12.6 10.0834 10.0975 12.6 7.00345 12.6C3.89776 12.6 1.40002 10.0685 1.40002 6.99607C1.40002 3.91425 3.91211 1.39999 7.00275 1.39999ZM6.78365 8.87802C6.26243 8.87802 5.83907 9.28843 5.83907 9.83079C5.83907 10.3669 6.25165 10.7766 6.79821 10.7766C7.33588 10.7766 7.73761 10.3544 7.73761 9.83044C7.73761 9.31832 7.32783 8.87802 6.78365 8.87802ZM6.91574 3.33269C5.98929 3.33269 5.21558 3.72091 4.91024 3.90634L5.53856 5.40875C5.93098 5.20148 6.48097 4.98539 6.8813 4.98539C7.30823 4.98539 7.39615 5.23123 7.39615 5.42569C7.39615 6.21536 5.94834 6.17532 5.94834 7.56685V8.39999H7.58732V7.56685C7.58732 7.01532 9.03814 6.67106 9.03814 5.1221C9.03814 4.01617 8.14732 3.33269 6.91574 3.33269Z" fill="#1A1C1F"/>
</g>
<defs>
<clipPath id="clip0_2214_8110">
<rect width="14" height="14" fill="white"/>
</clipPath>
</defs>
</svg>

<svg xmlns="http://www.w3.org/2000/svg" width="14" height="14" fill="none"><g clip-path="url(#a)"><path fill="#1A1C1F" fill-rule="evenodd" d="M7.003 1.4A5.6 5.6 0 0 1 12.6 6.996 5.603 5.603 0 0 1 7.003 12.6C3.898 12.6 1.4 10.069 1.4 6.996 1.4 3.914 3.912 1.4 7.003 1.4m-.22 7.478a.94.94 0 0 0-.944.953c0 .536.413.946.96.946a.93.93 0 0 0 .939-.947.95.95 0 0 0-.954-.952m.133-5.545c-.927 0-1.7.388-2.006.573L5.54 5.41c.392-.208.942-.424 1.342-.424.427 0 .515.246.515.44 0 .79-1.448.75-1.448 2.142V8.4h1.64v-.833c0-.552 1.45-.896 1.45-2.445 0-1.106-.89-1.79-2.122-1.79" clip-rule="evenodd"/></g><defs><clipPath id="a"><path fill="#fff" d="M0 0h14v14H0z"/></clipPath></defs></svg>
